packages/ffe-icons/icons/filled/md/align_vertical_center.svg

<svg xmlns="http://www.w3.org/2000/svg" height="24" viewBox="0 -960 960 960" width="24"><path d="M342.308-140.001q-20.769 0-35.577-14.808-14.807-14.807-14.807-35.576v-259.616H130.001q-12.75 0-21.375-8.628-8.625-8.629-8.625-21.384 0-12.756 8.625-21.371 8.625-8.615 21.375-8.615h161.923v-259.616q0-20.769 14.807-35.576 14.808-14.808 35.577-14.808t35.576 14.808q14.808 14.807 14.808 35.576v259.616h174.616v-139.616q0-20.769 14.808-35.576 14.807-14.808 35.576-14.808t35.577 14.808q14.807 14.807 14.807 35.576v139.616h161.923q12.75 0 21.375 8.628 8.625 8.629 8.625 21.384 0 12.756-8.625 21.371-8.625 8.615-21.375 8.615H668.076v139.616q0 20.769-14.807 35.576-14.808 14.808-35.577 14.808t-35.576-14.808q-14.808-14.807-14.808-35.576v-139.616H392.692v259.616q0 20.769-14.808 35.576-14.807 14.808-35.576 14.808Z"/></svg>

<svg xmlns="http://www.w3.org/2000/svg" height="24" viewBox="0 -960 960 960" width="24"><path d="M342.31-140q-20.77 0-35.58-14.81-14.81-14.81-14.81-35.58V-450H130q-12.75 0-21.37-8.63-8.63-8.63-8.63-21.38 0-12.76 8.63-21.37Q117.25-510 130-510h161.92v-259.61q0-20.77 14.81-35.58Q321.54-820 342.31-820q20.77 0 35.57 14.81 14.81 14.81 14.81 35.58V-510h174.62v-139.61q0-20.77 14.81-35.58Q596.92-700 617.69-700t35.58 14.81q14.81 14.81 14.81 35.58V-510H830q12.75 0 21.37 8.63 8.63 8.63 8.63 21.38 0 12.76-8.63 21.37Q842.75-450 830-450H668.08v139.61q0 20.77-14.81 35.58Q638.46-260 617.69-260q-20.77 0-35.57-14.81-14.81-14.81-14.81-35.58V-450H392.69v259.61q0 20.77-14.81 35.58Q363.08-140 342.31-140Z"/></svg>
